X:1
T:The Last Rose of Summer, 87.87 D
T:The Last Rose of Summer, 87.87 D
T:Irish Air
T:Public Domain Courtesy of the Cyber Hymnal™
C:Irish Air
Z:Public Domain
Z:Courtesy of the Cyber Hymnal™
%%score ( 1 2 ) 3
L:1/8
Q:1/4=88
M:3/4
K:Eb
V:1 treble 
V:2 treble 
V:3 bass 
V:1
 E>[DF] | [EG]2 (ed) [Ac]>B | [GB] [EG]3 E>[EF] | ([EG] [GB]2) [EG] [DF]>E | E4 E>[DF] | %5
 [EG]2 (ed) [Ac]>B | [GB] [EG]3 E>[EF] | ([EG] [GB]2) [EG] [DF]>E | E4 [EB]>[EG] | %9
 [Ge]3 [Gd] [Ac]>B | [GB]2 [EG]2 [EB]>[EG] | [Ge]2 (ed) [Gc][G=B] | %12
 (!fermata!c2 !fermata!e2) E>[DF] | [EG]2 (ed) [Ac]>B | [GB] [EG]3 E>[EF] | %15
 ([EG] [GB]2) [EG] [DF]>E | E4 |] %17
V:2
 E3/2 x/ | x2 G2 x/ B/ x | x4 E3/2 x/ | x11/2 E/ | E4 E3/2 x/ | x2 G2 x/ B/ x | x4 E3/2 x/ | %7
 x11/2 E/ | E4 x2 | x11/2 B/ | x6 | x2 A2 x2 | G4 x2 | x2 G2 x/ B/ x | x4 E3/2 x/ | x11/2 E/ | %16
 E4 |] %17
V:3
 [E,G,]>[E,B,] | [E,B,]2 [E,E]2 [A,E]>[G,E] | [E,E] [E,B,]3 [E,G,]>[E,A,] | %3
 [E,B,]3 [E,B,] [B,,A,]>[B,,G,] | [E,G,]4 [E,G,]>[E,B,] | [E,B,]2 [E,E]2 [A,E]>[G,E] | %6
 [E,E] [E,B,]3 [E,G,]>[E,A,] | [E,B,]3 [E,B,] [B,,A,]>[B,,G,] | [E,G,]4 [E,G,]>[E,B,] | %9
 [E,B,]3 [E,E] [A,E]>[G,E] | [E,E]2 [E,B,]2 [E,G,]>[E,G,] | [C,C]2 [F,C]2 [G,E][G,D] | %12
 [C,CE]4 [E,G,]>[E,B,] | [E,B,]2 [E,E]2 [A,E]>[G,E] | [E,E] [E,B,]3 [E,G,]>[C,=A,] | %15
 [B,,B,]3 [B,,B,] [B,,A,]>[E,G,] | [E,G,]4 |] %17

